X:1
T: O Dear! What can the matter be
C:
R:Jig
Q:180
K:G
M:6/8
L:1/16
|:f6f6|d2B2g2 d2B2G2|c6c6|c2A2B2 c2B2A2|
d6d6|d2B2g2 d2B2G2|E2c2B2 A2G2F2|G6G4d2|
d2B2c2 d2B2c2|d2B2g2 d2B2G2|c2A2B2 c2A2B2|c2A2B2 c2B2A2|
d2B2c2 d2B2c2|d2B2g2 d2B2G2|E2c2B2 A2G2F2|G6G6:|
